X:107
T:Last House of (in) Connaght (r)
B:NFID.104b
107last_h
S:SD
N:This sounds more like the tune usually called
"Dinny O'Brien's".
L:1/8
M:C
R:reel
Q:360
K:D=C
de|: fd ~d2 dcAB|c2Bd cAGE|D2Ad (3EFG AB|c3e dcAg|
fd ~d2 dcAB|c2Bd cAGE|D2Ad (3EFG AB|cAGE D2Ag:|
fd ~d2 defd|ad ~d2 bdad|c2 ~c2 cdef|gc ~c2 acga|
(3aba ga faec|d2AB cAGE|D2Ad (3EFG AB|cAGE D2Ag:|

%%%

